X: 1
T: Ragtime Annie
R: reel
M: 4/4
L: 1/8
K: Dmaj
DFAF B2AF | DFAF B2AF | DFDF B2AF | Ac2A c2B2 |
ABcA BcBA | AB2A BcBA | ABcd egfe | d6 fg:|
a2ab afdB | A2A2 A2fg | a2a2 g2f2 | B6 ef |
gfef gfed | c2A2 c2A2 | B2B2 A2G2 | F6 fg |
a2ab afdB | A2A2 A2fg | a2a2 g2f2|B6 ga |
b2b2 bafg | a2ab afdB | ABcd egfe | d6 GA |
|:B2B2 BGAB | =cB=cd =c2de | f2f2 fdef | gfga g2GA |
B2B2 BGAB | =cB=cd =c2De | f2f2 fdef | gfga g4 :|


Tune 3954	Setting 16823

